X:1
T:Title
%%score { ( 1 3 ) | ( 2 4 ) }
L:1/8
M:4/4
K:G
V:1 treble nm="Grand Piano"
V:3 treble 
V:2 treble 
V:4 treble 
V:1
 z4 z2[Q:1/4=100] G>A | B2 B>B BAG[DF] | [CE]4 [EA]2 [Ec][EA] | G2 G2 F2 [FA]2 |[M:3/4] G6 | %5
[M:1/4] G>A |[M:4/4] B2 B>B BAG[DF] | [CE]4 [EA]2 [Ec][CEA] | [B,DG]2 [B,DG]2 [A,DF]2 [CFA]2 | %9
[M:3/4] [B,G]6 |[M:1/4] Bc |[M:4/4] [Bd]6 z2 | [Bd]>[Ac] [Ac][GB] [Ac]2 AB | [Ac]6 z2 | %14
 [Ac]>B BA B2 GA | [GB]6 z2 | [EB]>[EA] [EA][E^G] [EA]2 [FB][Ec] | B6 z2 |[M:3/4] [B,G]6 |] %19
V:2
 z4 z2 [G,B,]>[G,CG] | [G,DG]2 [G,DG]>[G,DG] [G,DG][G,CG][K:bass][G,B,][B,,G,] | %2
 [C,G,]4 [C,C]2 [C,A,][C,C] | [D,B,D]2 [D,B,D]2 [D,A,D]2 [D,C]2 |[M:3/4] [G,B,]6 | %5
[M:1/4] [G,B,]>[K:treble][G,CG] |[M:4/4] [G,DG]2 [G,DG]>[G,DG] [G,DG][G,CG][K:bass][G,B,][B,,G,] | %7
 [C,G,]4 [C,C]2 [C,A,]C, | D,2 D,2 D,2 D,2 |[M:3/4] G,6 |[M:1/4][K:treble] GA | %11
[M:4/4] G,2 G,2 G,2[K:bass] [G,D][G,D] | [D,D]>[D,D] [D,D][D,D] [D,D]2[K:treble] FG | %13
 D,2 D,2 D,2 [D,D][D,D] | [G,D]>[G,DG] [G,DG][G,DF] [G,DG]2 z F | G,2 G,2 G,2 G,G, | %16
 [C,C]>[C,C] [C,C][C,C] [C,C]2 [C,G,][C,G,] | [D,G,]2 z2 E,2 [D,F,C]2 |[M:3/4] [G,,G,]6 |] %19
V:3
 x8 | x8 | x8 | x8 |[M:3/4] x6 |[M:1/4] x2 |[M:4/4] x8 | x8 | x8 |[M:3/4] x6 |[M:1/4] x2 | %11
[M:4/4] D2 D2 D2 [ce][Bd] | x8 | D2 D2 D2 [Bd][Ac] | x8 | D2 D2 D2 [DAc][DGB] | x8 | D4 ^C2 A2 | %18
[M:3/4] x6 |] %19
V:4
 x8 | x6[K:bass] x2 | x8 | x8 |[M:3/4] x6 |[M:1/4] x3/2[K:treble] x/ |[M:4/4] x6[K:bass] x2 | x8 | %8
 x8 |[M:3/4] x6 |[M:1/4][K:treble] x2 |[M:4/4] x6[K:bass] x2 | x6[K:treble] x2 | x8 | z4 z2 G,2 | %15
 x8 | x8 | z2 D,4 z2 |[M:3/4] x6 |] %19

